!!!OTL: Fern im S&uuml;d das schöne Spanien (3-6), S. 16
!!!id: K1143
**kern
*clefG2
*k[b-]
*F:
{8a
8b-
=1
4.a
8g
8f
8g
=2
4f
4e}
=3
{8.dd
16cc
=4
4.cc
8a
8f
8g
=5
2a}
=6
{8a
8a
=7
4.a
8a
8b
8cc
=8
4b
4a}
=9
{8a
8cc
=10
4.ee
16dd
16cc
8b
8cc
=11
2a}
=12
{8.b-
16a
=13
8g
8g-
4g
8.b-
16a
=14
8g
8g-
4g}
=15
{8a
8b-
=16
4.cc
8cc
16dd
16cc
16a
16f
=17
2g}
=18
{8a
8b-
=19
4.a
8g
8.f
16g
=20
4f
4e}
=21
{8g
8g
=22
4.a
8f
8b-
8g
=23
2cc}
=24
{8cc
8dd-
=25
4.dd
8dd
8.ee
16dd
=26
8cc
8b-}
=27
{8a
8g
8f
8c
=28
2a
4g
=29
2f}
==
*-
!!!minrhy: 16
!!!meters: 3/4 ]  ZZ[10
!!!cut: Fern im S&uuml;d das schöne Spanien (3-6), S. 16
!!!reg: Luxemburg
!!!trd: KINTZELE, Guillaume: An der Ucht, Bd. 3 Luxemburg 1928
!!!rhy1: X_X_  X__.X_X_X_  X__X__
!!!rhy2: X_.X  X__.X_X_X_  X___
!!!key: K1143  16  F 3/4 ]  ZZ[10
!!!mod: ZEHNTONSKALA ]  AMBITUS[10
!!!kad: -733322-7541
!!!akz: 31_53_34#_73_22_52_31_35_65_31_
!!!fot: 'a__b__c__d__e__f__a__g__h__i__
!!!for: 'a__aw_a__b__c__d__e__aw_f__g__
!!!fok: '\__Vd_^__^__Sd_^d_\__/__^d_\__
!! PHRAS[AUFTAKTIG]
!!!fkt: Heimatlied (eines spanischen Auswanderers?)
!!!bem: in der Quelle mit einer 2. Stimme versehen
!! KINTZELE
!! PR[20] 2K[6] 2G[12] 3K[4] 3G[2] 4A[4] 4Ü[0] 5A[4] 6K[0] 6G[2]
!! 7K[0] 7G[0] 8A[0] MEHR[0] SI[34] ABS[83] SR[18] SP[16]
!! ST[18] 2k[10] 2g[30] 3k[0] 3g[0] 4d[2] 4ü[0] 5d[1] 6k[2] 6g[0]
!! 7k[0] 7g[0] 8d[0] mehr[0] si[46] dm[-12] sr[40] sp[6]
!! 1F[5] 2F[66] 3F[5] 4F[13] LF[0] 2P[3] 3P[7] 4P[0] TRI[0] DF[6] AB[92]
!! TF[0] U3K[0] U3[0] U4[0] U4Ü[1] U5[15] U6K[0] U6[14] U7K[0] U7[12]
!! N1[17] N2K[0] N2[23] N3K[0] N3[12] N4[4] N4Ü[0] N5[2] N6K[0] N6[0]
!!!n7k: 0] N7[0] O1[0] O2K[0] O2[0] O3K[0] O3[0] HÖ[0
!!!RNB: symbol: &uuml;  = u umlaut (UTF-8: Ã¼)
